icons/logo-gist-16.svg

<svg xmlns="http://www.w3.org/2000/svg" width="25" height="16" viewBox="0 0 25 16"><path d="M4.7 8.73v-1h3.52v5.69c-.78.37-1.95.64-3.59.64C1.11 14.06 0 11.37 0 8.03 0 4.69 1.13 2 4.63 2c1.62 0 2.64.33 3.28.66v1.05c-1.22-.5-2-.73-3.28-.73-2.57 0-3.48 2.21-3.48 5.06 0 2.85.91 5.05 3.47 5.05.89 0 1.98-.07 2.53-.34V8.73zm10.98.69h.03c2.22.2 2.75.95 2.75 2.23 0 1.21-.76 2.41-3.14 2.41-.75 0-1.83-.19-2.33-.39v-.94c.47.17 1.22.36 2.33.36 1.62 0 2.06-.69 2.06-1.42 0-.71-.22-1.21-1.77-1.34-2.26-.2-2.73-1-2.73-2.08 0-1.11.72-2.31 2.92-2.31.73 0 1.56.09 2.25.39v.94c-.61-.2-1.22-.36-2.27-.36-1.55 0-1.88.57-1.88 1.34 0 .69.28 1.04 1.78 1.17zm8.58-3.33v.85h-2.42v4.87c0 .95.53 1.34 1.5 1.34.2 0 .42 0 .61-.03v.89c-.17.03-.5.05-.69.05-1.31 0-2.5-.6-2.5-2.13v-5H19.2v-.48l1.56-.44V3.9l1.08-.31v2.5h2.42zm-13.17-.03v6.41c0 .54.19.7.67.7v.89c-1.14 0-1.72-.47-1.72-1.72V6.06h1.05zm.25-2.33c0 .44-.34.78-.78.78a.76.76 0 01-.77-.78c0-.44.32-.78.77-.78s.78.34.78.78z"/></svg>

<svg xmlns="http://www.w3.org/2000/svg" width="25" height="16" viewBox="0 0 25 16">
  <defs/>
  <path d="M4.7,8.73 L4.7,7.73 L8.22,7.73 L8.22,13.42 C7.44,13.79 6.27,14.06 4.63,14.06 C1.11,14.06 0,11.37 0,8.03 C0,4.69 1.13,2 4.63,2 C6.25,2 7.27,2.33 7.91,2.66 L7.91,3.71 C6.69,3.21 5.91,2.98 4.63,2.98 C2.06,2.98 1.15,5.19 1.15,8.04 C1.15,10.89 2.06,13.09 4.62,13.09 C5.51,13.09 6.6,13.02 7.15,12.75 L7.15,8.73 Z M15.68,9.42 L15.71,9.42 C17.93,9.62 18.46,10.37 18.46,11.65 C18.46,12.86 17.7,14.06 15.32,14.06 C14.57,14.06 13.49,13.87 12.99,13.67 L12.99,12.73 C13.46,12.9 14.21,13.09 15.32,13.09 C16.94,13.09 17.38,12.4 17.38,11.67 C17.38,10.96 17.16,10.46 15.61,10.33 C13.35,10.13 12.88,9.33 12.88,8.25 C12.88,7.14 13.6,5.94 15.8,5.94 C16.53,5.94 17.36,6.03 18.05,6.33 L18.05,7.27 C17.44,7.07 16.83,6.91 15.78,6.91 C14.23,6.91 13.9,7.48 13.9,8.25 C13.9,8.94 14.18,9.29 15.68,9.42 Z M24.26,6.09 L24.26,6.94 L21.84,6.94 L21.84,11.81 C21.84,12.76 22.37,13.15 23.34,13.15 C23.54,13.15 23.76,13.15 23.95,13.12 L23.95,14.01 C23.78,14.04 23.45,14.06 23.26,14.06 C21.95,14.06 20.76,13.46 20.76,11.93 L20.76,6.93 L19.2,6.93 L19.2,6.45 L20.76,6.01 L20.76,3.9 L21.84,3.59 L21.84,6.09 L24.26,6.09 Z M11.09,6.06 L11.09,12.47 C11.09,13.01 11.28,13.17 11.76,13.17 L11.76,14.06 C10.62,14.06 10.04,13.59 10.04,12.34 L10.04,6.06 L11.09,6.06 Z M11.34,3.73 C11.34,4.17 11,4.51 10.56,4.51 C10.12,4.51 9.79,4.17 9.79,3.73 C9.79,3.29 10.11,2.95 10.56,2.95 C11.01,2.95 11.34,3.29 11.34,3.73 Z"/>
</svg>
